lib/healthicons/icons/solid/specialties/human_resoruces.svg

<svg fill="none" height="48" viewBox="0 0 48 48" width="48" xmlns="http://www.w3.org/2000/svg"><path clip-rule="evenodd" d="m6 9c0-1.65685 1.34315-3 3-3h30c1.6569 0 3 1.34315 3 3v30c0 1.6569-1.3431 3-3 3h-30c-1.65685 0-3-1.3431-3-3zm13 11c0 1.6575-1.3425 3-3 3s-3-1.3425-3-3 1.3425-3 3-3 3 1.3425 3 3zm-7 7.7273c0-.1184.0469-.276.2561-.4866.2183-.2198.564-.4422 1.0186-.6409.9144-.3996 2.028-.5998 2.7253-.5998s1.8109.2002 2.7253.5998c.4546.1987.8003.4211 1.0186.6409.2092.2106.2561.3682.2561.4866v3.2727h2v-3.2727c0-.7885-.3695-1.4252-.8371-1.896-.4584-.4616-1.0498-.8076-1.6367-1.0641-1.1683-.5106-2.5547-.7672-3.5262-.7672s-2.3579.2566-3.5262.7672c-.5869.2565-1.1783.6025-1.6367 1.0641-.4676.4708-.8371 1.1075-.8371 1.896v3.2727h2zm16.2561-.4866c-.2092.2106-.2561.3682-.2561.4866v3.2727h-2v-3.2727c0-.7885.3695-1.4252.8371-1.896.4584-.4616 1.0498-.8076 1.6367-1.0641 1.1683-.5106 2.5547-.7672 3.5262-.7672s2.3579.2566 3.5262.7672c.5869.2565 1.1783.6025 1.6367 1.0641.4676.4708.8371 1.1075.8371 1.896v3.2727h-2v-3.2727c0-.1184-.0469-.276-.2561-.4866-.2183-.2198-.564-.4422-1.0186-.6409-.9144-.3996-2.028-.5998-2.7253-.5998s-1.8109.2002-2.7253.5998c-.4546.1987-.8003.4211-1.0186.6409zm3.7439-4.2407c1.6575 0 3-1.3425 3-3s-1.3425-3-3-3-3 1.3425-3 3 1.3425 3 3 3zm-5-5c0 1.6575-1.3425 3-3 3s-3-1.3425-3-3 1.3425-3 3-3 3 1.3425 3 3zm-4.7541 7.166c.0704-.0788.1679-.1431.4513-.1708.151-.0147.3274-.0161.5537-.0111.0614.0014.1294.0033.2017.0054.17.0049.3632.0105.5474.0105s.3774-.0056.5474-.0105c.0723-.0021.1403-.004.2017-.0054.2263-.005.4027-.0036.5537.0111.2834.0277.3809.092.4513.1708l1.4918-1.332c-.5248-.5878-1.1795-.7736-1.7484-.8293-.3438-.0336-.7695-.0219-1.1188-.0122-.1425.0039-.2724.0075-.3787.0075s-.236-.0036-.3785-.0075c-.3493-.0097-.7752-.0214-1.119.0122-.5689.0557-1.2236.2414-1.7484.8293z" fill="#333" fill-rule="evenodd"/></svg>

<svg width="48" height="48" viewBox="0 0 48 48" fill="none" xmlns="http://www.w3.org/2000/svg">
<path fill-rule="evenodd" clip-rule="evenodd" d="M6 9C6 7.34315 7.34315 6 9 6H39C40.6569 6 42 7.34315 42 9V39C42 40.6569 40.6569 42 39 42H9C7.34315 42 6 40.6569 6 39V9ZM19 20C19 21.6575 17.6575 23 16 23C14.3425 23 13 21.6575 13 20C13 18.3425 14.3425 17 16 17C17.6575 17 19 18.3425 19 20ZM12 27.7273C12 27.6089 12.0469 27.4513 12.2561 27.2407C12.4744 27.0209 12.8201 26.7985 13.2747 26.5998C14.1891 26.2002 15.3027 26 16 26C16.6973 26 17.8109 26.2002 18.7253 26.5998C19.1799 26.7985 19.5256 27.0209 19.7439 27.2407C19.9531 27.4513 20 27.6089 20 27.7273V31H22V27.7273C22 26.9388 21.6305 26.3021 21.1629 25.8313C20.7045 25.3697 20.1131 25.0237 19.5262 24.7672C18.3579 24.2566 16.9715 24 16 24C15.0285 24 13.6421 24.2566 12.4738 24.7672C11.8869 25.0237 11.2955 25.3697 10.8371 25.8313C10.3695 26.3021 10 26.9388 10 27.7273V31H12V27.7273ZM28.2561 27.2407C28.0469 27.4513 28 27.6089 28 27.7273V31H26V27.7273C26 26.9388 26.3695 26.3021 26.8371 25.8313C27.2955 25.3697 27.8869 25.0237 28.4738 24.7672C29.6421 24.2566 31.0285 24 32 24C32.9715 24 34.3579 24.2566 35.5262 24.7672C36.1131 25.0237 36.7045 25.3697 37.1629 25.8313C37.6305 26.3021 38 26.9388 38 27.7273V31H36V27.7273C36 27.6089 35.9531 27.4513 35.7439 27.2407C35.5256 27.0209 35.1799 26.7985 34.7253 26.5998C33.8109 26.2002 32.6973 26 32 26C31.3027 26 30.1891 26.2002 29.2747 26.5998C28.8201 26.7985 28.4744 27.0209 28.2561 27.2407ZM32 23C33.6575 23 35 21.6575 35 20C35 18.3425 33.6575 17 32 17C30.3425 17 29 18.3425 29 20C29 21.6575 30.3425 23 32 23ZM27 18C27 19.6575 25.6575 21 24 21C22.3425 21 21 19.6575 21 18C21 16.3425 22.3425 15 24 15C25.6575 15 27 16.3425 27 18ZM22.2459 25.166C22.3163 25.0872 22.4138 25.0229 22.6972 24.9952C22.8482 24.9805 23.0246 24.9791 23.2509 24.9841C23.3123 24.9855 23.3803 24.9874 23.4526 24.9895C23.6226 24.9944 23.8158 25 24 25C24.1842 25 24.3774 24.9944 24.5474 24.9895C24.6197 24.9874 24.6877 24.9855 24.7491 24.9841C24.9754 24.9791 25.1518 24.9805 25.3028 24.9952C25.5862 25.0229 25.6837 25.0872 25.7541 25.166L27.2459 23.834C26.7211 23.2462 26.0664 23.0604 25.4975 23.0047C25.1537 22.9711 24.728 22.9828 24.3787 22.9925C24.2362 22.9964 24.1063 23 24 23C23.8937 23 23.764 22.9964 23.6215 22.9925C23.2722 22.9828 22.8463 22.9711 22.5025 23.0047C21.9336 23.0604 21.2789 23.2461 20.7541 23.834L22.2459 25.166Z" fill="#333333"/>
</svg>
